assets/img/github.svg

<svg width="32" height="32" viewBox="0 0 32 32" fill="none" xmlns="http://www.w3.org/2000/svg">
  <g clip-path="url(#clip0)">
    <path d="M16.0001 0.373536C12.191 0.372404 8.50648 1.73023 5.60904 4.20285C2.71161 6.67547 0.791354 10.1007 0.193569 13.8625C-0.404216 17.6244 0.359689 21.4761 2.34792 24.7251C4.33615 27.9741 7.41827 30.4072 11.0401 31.5869H11.4267C11.6154 31.5986 11.8043 31.57 11.9811 31.5031C12.1579 31.4363 12.3184 31.3326 12.4521 31.1989C12.5857 31.0653 12.6894 30.9047 12.7563 30.7279C12.8232 30.5512 12.8518 30.3622 12.8401 30.1735V29.8935C12.8401 29.6669 12.8401 29.3602 12.8401 28.4402C12.827 28.3529 12.7967 28.269 12.7509 28.1934C12.7051 28.1179 12.6448 28.0522 12.5734 28.0002C12.4959 27.9375 12.4054 27.8931 12.3085 27.87C12.2116 27.8469 12.1108 27.8458 12.0134 27.8669C8.44006 28.6402 7.68006 26.4002 7.62673 26.2535C7.17927 25.0684 6.37877 24.0491 5.33339 23.3335C5.27076 23.2794 5.20388 23.2303 5.13339 23.1869C5.28834 23.1035 5.46556 23.0708 5.64006 23.0935C5.97518 23.1401 6.29253 23.2727 6.56122 23.4783C6.82992 23.6839 7.04082 23.9556 7.17339 24.2669C7.68919 25.165 8.53323 25.828 9.52794 26.1165C10.5226 26.4049 11.5905 26.2963 12.5067 25.8135C12.6051 25.7706 12.6915 25.7045 12.7589 25.6209C12.8262 25.5373 12.8723 25.4388 12.8934 25.3335C12.9444 24.7168 13.2084 24.137 13.6401 23.6935C13.7359 23.6084 13.8052 23.4975 13.8396 23.3741C13.874 23.2506 13.8721 23.1199 13.8341 22.9975C13.7961 22.8751 13.7236 22.7662 13.6254 22.6839C13.5271 22.6016 13.4072 22.5494 13.2801 22.5335C10.1201 22.1735 6.89339 21.0669 6.89339 15.6135C6.86676 14.244 7.36805 12.9168 8.29339 11.9069C8.37862 11.8127 8.43519 11.6962 8.45644 11.571C8.4777 11.4458 8.46277 11.3172 8.41339 11.2002C8.04283 10.1649 8.04755 9.03237 8.42673 8.0002C9.6585 8.21855 10.8146 8.74615 11.7867 9.53354C11.867 9.59022 11.9591 9.62805 12.0561 9.64421C12.153 9.66037 12.2524 9.65444 12.3467 9.62687C13.5378 9.30378 14.766 9.13793 16.0001 9.13354C17.2388 9.13458 18.4718 9.30048 19.6667 9.62687C19.7591 9.65236 19.856 9.65721 19.9505 9.64108C20.0449 9.62495 20.1347 9.58824 20.2134 9.53354C21.187 8.74863 22.3425 8.22133 23.5734 8.0002C23.9364 9.02684 23.9364 10.1469 23.5734 11.1735C23.524 11.2905 23.5091 11.4192 23.5303 11.5444C23.5516 11.6696 23.6082 11.7861 23.6934 11.8802C24.6092 12.88 25.1098 14.1911 25.0934 15.5469C25.0934 21.0002 21.8534 22.0935 18.6801 22.4535C18.5499 22.4671 18.4266 22.5187 18.3256 22.6018C18.2245 22.6849 18.1502 22.796 18.1118 22.9211C18.0734 23.0462 18.0727 23.1798 18.1097 23.3053C18.1467 23.4308 18.2199 23.5427 18.3201 23.6269C18.6154 23.9317 18.8411 24.297 18.9815 24.6976C19.1219 25.0981 19.1737 25.5243 19.1334 25.9469V30.1869C19.1268 30.3953 19.1664 30.6026 19.2494 30.794C19.3324 30.9853 19.4567 31.1559 19.6134 31.2935C19.813 31.4429 20.0447 31.5437 20.29 31.5876C20.5354 31.6316 20.7877 31.6177 21.0267 31.5469C24.6242 30.3434 27.677 27.9008 29.6405 24.655C31.604 21.4093 32.3504 17.5714 31.7465 13.8264C31.1426 10.0813 29.2277 6.67261 26.3435 4.20853C23.4594 1.74445 19.7935 0.385276 16.0001 0.373536Z" fill="#808080"/>
  </g>
  <defs>
    <clipPath id="clip0">
      <rect width="32" height="32" fill="white"/>
    </clipPath>
  </defs>
</svg>

<svg xmlns="http://www.w3.org/2000/svg" width="32" height="32" fill="none"><g clip-path="url(#A)"><path d="M16 .374A16 16 0 0 0 .194 13.863 16 16 0 0 0 11.04 31.587h.387c.189.012.378-.017.554-.084a1.33 1.33 0 0 0 .471-.304c.134-.134.237-.294.304-.471s.096-.366.084-.554v-.28-1.453c-.013-.087-.043-.171-.089-.247s-.106-.141-.178-.193c-.077-.063-.168-.107-.265-.13s-.198-.024-.295-.003C8.44 28.64 7.68 26.4 7.627 26.254c-.447-1.185-1.248-2.204-2.293-2.92-.063-.054-.13-.103-.2-.147a.84.84 0 0 1 .507-.093 1.96 1.96 0 0 1 1.533 1.173 4 4 0 0 0 5.333 1.547c.098-.043.185-.109.252-.193s.113-.182.134-.287c.051-.617.315-1.197.747-1.64.096-.085.165-.196.2-.319s.032-.254-.006-.377-.111-.231-.209-.314-.218-.135-.345-.15c-3.16-.36-6.387-1.467-6.387-6.92-.027-1.37.475-2.697 1.4-3.707.085-.094.142-.211.163-.336s.006-.254-.043-.371c-.371-1.035-.366-2.168.013-3.2 1.232.218 2.388.746 3.36 1.533.08.057.172.095.269.111s.196.01.291-.017c1.191-.323 2.419-.489 3.653-.493a13.96 13.96 0 0 1 3.667.493c.092.025.189.03.284.014s.184-.053.263-.108c.974-.785 2.129-1.312 3.36-1.533a4.76 4.76 0 0 1 0 3.173c-.049.117-.064.246-.043.371s.078.242.163.336c.916 1 1.416 2.311 1.4 3.667 0 5.453-3.24 6.547-6.413 6.907-.13.014-.253.065-.354.148s-.175.194-.214.319-.039.259-.002.384.11.237.21.322c.295.305.521.67.661 1.071s.192.827.152 1.249v4.24c-.007.208.033.416.116.607s.207.362.364.5a1.6 1.6 0 0 0 1.413.253 16 16 0 0 0 10.72-17.72A16 16 0 0 0 16 .374z" fill="gray"/></g><defs><clipPath id="A"><path fill="#fff" d="M0 0h32v32H0z"/></clipPath></defs></svg>
